X:3575
T:Crossmaglen
R:reel
C:Ed Reavy
M:2/2
L:1/8
Z:Joe Reavy
N:I'm told that the road from Carrickmacross to Crossmaglen 
N:is lined with your worst sort of rogues. The verse 
N:perhaps comes from some old cantankerous Irishman 
N:who probably never himself walked this road. If he had, 
N:he would surely have been charmed with the likes of what he 
N:saw and heard. (Another tune to delight Ed's close friend 
N:from Armagh: Lou Quinn).
K:F
de|fedc ADDE|FDAD FDDF|Ec=Bc ECCE|Ddd^c d2 de|
fgdf edce|(3ddc AF EDCE|DE^FG AdcA|GECE D2:||
de|fefg afdf|ec (3cBc Gceg|fefg afdf|ed^ce d2 fg|
afdf ed^ce|(3ddc AF EDCE|DE^FG AdcA|GECE D2:||


